X:465
T:Jackson's
T:Jackson's Bottle of Brandy
R:jig
H:See also #177 in G
Z:hn-jig-465
M:6/8
L:1/8
K:A
~A3 cee | fec ecB | A2A cee | fec BAF |
~A3 cee | fec efa | abf ecA | ~B3 cAF :|
|: ~a3 gag | fgf ecA | aba fec | fbb baf |
~a3 gag | fgf ecA | a2f ecA | BAB cAF :|
|: A2f ecA | c2c ecB | A2f ecA | BAB cAF |
A2f ecA | cBc efa | abf ecA | BAB cAF :|

